X: 37429
T: Sliabh League Schottische, The
R: barndance
M: 4/4
K: Gmajor
|:D>G|B2 d2- d2 c>B|A2 E2- E2 F>E|D>EF>G A>cB>A|G>A (3BAG D2 D>G|
B2 d2- d2 c>B|A2 E2- E2 F>E|D>EF>G A>cB>A|G2 B2 G2:|
(3Bcd|e2- e>f g2- g>f|e>d^c>e d>GB>G|F>DA>D c>DA>D|G>DB>D G>gf>g|
e2- e>c g2- g>c|(3ed^c d>e d>BG>D|F>GA>B c>de>f|g2 d2 G>gf>g|
e2 c>f g2 (3gfe|e>d^c>e d2 (3BAG|F>DA>D c>DA>D|G>D (3Bcd G2 f>g|
e2 e>f (3gag g>c|(3ed^c d>e d>BG>D|F2 (3GAB c2 (3def|g2 (3ded G2||

